public/images/js.svg

<svg width="52" height="53" viewBox="0 0 52 53" fill="none" xmlns="http://www.w3.org/2000/svg">
<g id="Group 68">
<path id="Vector" d="M51.7153 0.572876H0.257324V52.0308H51.7153V0.572876Z" fill="#F7DF1E"/>
<path id="Vector_2" d="M34.824 40.7746C35.8605 42.467 37.209 43.711 39.5941 43.711C41.5977 43.711 42.8776 42.7096 42.8776 41.326C42.8776 39.6679 41.5625 39.0806 39.3572 38.116L38.1483 37.5973C34.659 36.1108 32.3409 34.2485 32.3409 30.3115C32.3409 26.685 35.1042 23.9242 39.4225 23.9242C42.497 23.9242 44.7072 24.9942 46.2999 27.7958L42.5345 30.2135C41.7055 28.7269 40.8111 28.1413 39.4225 28.1413C38.0062 28.1413 37.1086 29.0398 37.1086 30.2135C37.1086 31.6641 38.007 32.2514 40.0817 33.1499L41.2906 33.6677C45.399 35.4295 47.7187 37.2257 47.7187 41.2639C47.7187 45.6174 44.2988 48.0024 39.706 48.0024C35.2152 48.0024 32.314 45.8624 30.8944 43.0576L34.824 40.7746ZM17.7424 41.1937C18.502 42.5414 19.193 43.6808 20.8544 43.6808C22.443 43.6808 23.4453 43.0592 23.4453 40.6423V24.2003H28.2807V40.7077C28.2807 45.7146 25.3451 47.9935 21.0602 47.9935C17.1886 47.9935 14.9465 45.9899 13.8063 43.5766L17.7424 41.1937Z" fill="black"/>
</g>
</svg>

<svg xmlns="http://www.w3.org/2000/svg" width="52" height="53" fill="none"><path fill="#F7DF1E" d="M51.715.573H.257V52.03h51.458V.573Z"/><path fill="#000" d="M34.824 40.775c1.037 1.692 2.385 2.936 4.77 2.936 2.004 0 3.284-1.001 3.284-2.385 0-1.658-1.316-2.245-3.52-3.21l-1.21-.519c-3.489-1.486-5.807-3.349-5.807-7.286 0-3.626 2.763-6.387 7.081-6.387 3.075 0 5.285 1.07 6.878 3.872l-3.765 2.418c-.83-1.487-1.724-2.073-3.112-2.073-1.417 0-2.314.899-2.314 2.073 0 1.45.898 2.037 2.973 2.936l1.209.518c4.108 1.761 6.428 3.558 6.428 7.596 0 4.353-3.42 6.738-8.013 6.738-4.49 0-7.392-2.14-8.812-4.944l3.93-2.283Zm-17.082.419c.76 1.347 1.451 2.487 3.112 2.487 1.589 0 2.591-.622 2.591-3.039V24.2h4.836v16.508c0 5.007-2.936 7.285-7.22 7.285-3.872 0-6.114-2.003-7.255-4.416l3.936-2.383Z"/></svg>
